earth-remove.svg

<svg fill="currentColor" viewBox="0 0 24 24"><path d="m14.46 15.88 1.42-1.42L18 16.59l2.12-2.12 1.42 1.41L19.41 18l2.13 2.12-1.42 1.42L18 19.41l-2.12 2.13-1.42-1.42L16.59 18l-2.12-2.12M20 12c0-3.36-2.07-6.23-5-7.41V5c0 1.1-.9 2-2 2h-2v2c0 .55-.45 1-1 1H8v2h6c.5 0 .9.35 1 .81-1.8 1.04-3 2.98-3 5.19 0 1.5.54 2.85 1.44 3.9L12 22C6.5 22 2 17.5 2 12S6.5 2 12 2s10 4.5 10 10l-.1 1.44c-.56-.48-1.2-.85-1.9-1.1zm-9 7.93V18c-1.1 0-2-.9-2-2v-1l-4.79-4.79C4.08 10.78 4 11.38 4 12c0 4.08 3.06 7.44 7 7.93"/></svg>

<svg  viewBox="0 0 24 24" fill="currentColor"><path  d="M14.46 15.88L15.88 14.46L18 16.59L20.12 14.47L21.54 15.88L19.41 18L21.54 20.12L20.12 21.54L18 19.41L15.88 21.54L14.46 20.12L16.59 18L14.47 15.88M20 12C20 8.64 17.93 5.77 15 4.59V5C15 6.1 14.1 7 13 7H11V9C11 9.55 10.55 10 10 10H8V12H14C14.5 12 14.9 12.35 15 12.81C13.2 13.85 12 15.79 12 18C12 19.5 12.54 20.85 13.44 21.9L12 22C6.5 22 2 17.5 2 12C2 6.5 6.5 2 12 2C17.5 2 22 6.5 22 12L21.9 13.44C21.34 12.96 20.7 12.59 20 12.34L20 12M11 19.93V18C9.9 18 9 17.1 9 16V15L4.21 10.21C4.08 10.78 4 11.38 4 12C4 16.08 7.06 19.44 11 19.93Z"/></svg>
